X:1
T: Rub the Bag
T: 2nd setting
C:
R:Jig
Q:180
K:C
M:6/8
L:1/16
d4d2 f2e2d2|c2B2A2 c2e2c2|B2c2B2 f2d2B2|d2c2B2 f2d2B2|
d4d2 f2e2d2|c2B2A2 c2e2c2|A2B2A2 e2c2A2|ABc2A2 e2c2A2|
d4d2 f2e2d2|c2B2A2 c2e2c2|B2c2B2 f2d2B2|d2c2B2 f2d2B2|
d4d2 f2e2d2|c2B2A2 c2e2c2|A2B2A2 e2c2A2|ABc2A2 d4z2|
|:d2e2d2 d2e2f2|e2f2e2 e2f2g2|f2g2f2 f4^g2|a2b2a2 a4g2|
f2g2f2 f2g2a2|g2f2e2 e2f2e2|d6 f2e2d2|c2B2A2 c2e2c2|
B2c2B2 f2d2B2|Bcd2B2 f2d2B2|d2c2d2 f2e2d2|c2B2A2 c2e2c2|
A2B2A2 e2c2A2|ABc2A2 d4z2:|
